X: 35360
T: Rosie's
R: reel
M: 4/4
K: Bminor
|:FB BA ~B2 dA|FA AF AB FE|FB BA ~B2 AB|de ed ~e3g|
fB BA ~B2 dA|FAAF AB FE|F ~B3 dB fd|cA ec dB BA|
~F3F Bc dz|~F3B AF ED|FB BA ~B2 AB|d~e2d eaba|
fBBA ~B2 dA|FA AF AB FE|F~B3 dB fd|cA ec dB Bz||
z4g4|gffe edcB|Az~A2 EA ce|ae fa fe ce|
f~B3 gf (3efg|f~B3 dc Bc|AB BA EA ce|ae ce f~B3|
f~B3 ge ag|f~B3 dB ec|Az~A2 EA ce|ae fa fe ce|
f~B3 ba fe|f~B3 dc Bc|a4 af ec|(3ded (3cBA BAFE:|

